svgs/google_fi.svg

<?xml version="1.0" encoding="UTF-8" standalone="no"?>
<svg
   width="24"
   height="24"
   viewBox="0 0 24 24"
   fill="none"
   version="1.1"
   id="svg10"
   sodipodi:docname="google_fi.svg"
   inkscape:version="1.1.1 (3bf5ae0d25, 2021-09-20)"
   xmlns:inkscape="http://www.inkscape.org/namespaces/inkscape"
   xmlns:sodipodi="http://sodipodi.sourceforge.net/DTD/sodipodi-0.dtd"
   xmlns="http://www.w3.org/2000/svg"
   xmlns:svg="http://www.w3.org/2000/svg">
  <defs
     id="defs14" />
  <sodipodi:namedview
     id="namedview12"
     pagecolor="#ffffff"
     bordercolor="#666666"
     borderopacity="1.0"
     inkscape:pageshadow="2"
     inkscape:pageopacity="0.0"
     inkscape:pagecheckerboard="0"
     showgrid="false"
     inkscape:zoom="24.542498"
     inkscape:cx="3.361516"
     inkscape:cy="14.42396"
     inkscape:window-width="2560"
     inkscape:window-height="1011"
     inkscape:window-x="0"
     inkscape:window-y="32"
     inkscape:window-maximized="1"
     inkscape:current-layer="svg10" />
  <rect
     x="3.8873382"
     y="3"
     width="16.225323"
     height="5.0704021"
     rx="2.5352011"
     fill="#000000"
     id="rect2"
     style="stroke-width:0.899997" />
  <path
     id="rect4"
     style="fill:#000000;stroke-width:0.899997"
     d="M 6.421875 10.591797 C 5.5540772 10.591797 4.8867188 11.259155 4.8867188 12.126953 C 4.8867187 12.994751 5.5540772 13.662109 6.421875 13.662109 L 8.9589844 13.662109 L 8.9589844 12.126953 C 8.9589844 11.547428 8.7625731 11.017676 8.4375 10.591797 L 6.421875 10.591797 z M 3.8867188 14.582031 L 3.8867188 18.464844 C 3.8867188 19.869345 5.0173735 21 6.421875 21 C 7.8263765 21 8.9589844 19.869345 8.9589844 18.464844 L 8.9589844 15.662109 L 6.421875 15.662109 C 5.431053 15.662109 4.5308245 15.246779 3.8867188 14.582031 z " />
  <rect
     x="15.042349"
     y="9.5915499"
     width="5.0704021"
     height="11.40845"
     rx="2.5352011"
     fill="#000000"
     id="rect6"
     style="stroke-width:0.899997" />
  <rect
     x="9.5915499"
     y="-13.520995"
     width="5.0704021"
     height="9.6337461"
     rx="2.5352011"
     transform="rotate(90)"
     fill="#000000"
     id="rect8"
     style="stroke-width:0.899997" />
</svg>

<svg xmlns="http://www.w3.org/2000/svg" width="24" height="24" fill="none" viewBox="0 0 24 24"><rect width="16.225" height="5.07" x="3.887" y="3" fill="#000" rx="2.535" style="stroke-width:.899997"/><path d="M6.422 10.592a1.51 1.51 0 0 0-1.535 1.535 1.51 1.51 0 0 0 1.535 1.535h2.537v-1.535c0-.58-.196-1.11-.521-1.535zm-2.535 3.99v3.883A2.53 2.53 0 0 0 6.422 21a2.531 2.531 0 0 0 2.537-2.535v-2.803H6.422c-.99 0-1.891-.415-2.535-1.08" style="fill:#000;stroke-width:.899997"/><rect width="5.07" height="11.408" x="15.042" y="9.592" fill="#000" rx="2.535" style="stroke-width:.899997"/><rect width="5.07" height="9.634" x="9.592" y="-13.521" fill="#000" rx="2.535" style="stroke-width:.899997" transform="rotate(90)"/></svg>
